packages/core/src/svgs/flow.svg

<svg width="24" height="24" viewBox="0 0 24 24" fill="none" xmlns="http://www.w3.org/2000/svg">
<g clip-path="url(#clip0_31_10363)">
<path d="M0 0H24V24H0V0Z" fill="#00EF8B"/>
<path fill-rule="evenodd" clip-rule="evenodd" d="M18.0001 8.14307H14.9143C14.2501 8.14307 13.7143 8.81592 13.7143 9.46307V9.85735H10.2858V9.46307C10.2858 7.08021 12.2743 5.14307 14.7301 5.14307H18.0001V8.14307ZM10.2858 14.3574C10.2858 15.0302 9.88719 15.5831 9.21434 15.5831C8.35719 15.5831 7.98862 15.0302 7.98862 14.3574C7.98862 13.6845 8.54148 13.2859 9.21434 13.2859H10.2858V14.3574ZM13.7143 13.2859V14.1602C13.7143 16.6459 11.7001 18.8574 9.21434 18.8574C8.05484 18.8067 6.95963 18.3105 6.15706 17.4721C5.35448 16.6338 4.90649 15.518 4.90649 14.3574C4.90649 13.1968 5.35448 12.0809 6.15706 11.2426C6.95963 10.4042 8.05484 9.90797 9.21434 9.85735H10.2858V13.2859H13.7143ZM13.7143 13.2859V9.85735H17.1429V13.2859H13.7143Z" fill="white"/>
</g>
<defs>
<clipPath id="clip0_31_10363">
<rect width="24" height="24" fill="white"/>
</clipPath>
</defs>
</svg>

<svg xmlns="http://www.w3.org/2000/svg" width="24" height="24" fill="none" viewBox="0 0 24 24"><g clip-path="url(#a)"><path fill="#00EF8B" d="M0 0h24v24H0z"/><path fill="#fff" fill-rule="evenodd" d="M18 8.143h-3.086c-.664 0-1.2.673-1.2 1.32v.394h-3.428v-.394c0-2.383 1.988-4.32 4.444-4.32H18zm-7.714 6.214c0 .673-.399 1.226-1.072 1.226-.857 0-1.225-.553-1.225-1.226s.552-1.071 1.225-1.071h1.072zm3.428-1.071v.874c0 2.486-2.014 4.697-4.5 4.697a4.505 4.505 0 0 1 0-9h1.072v3.429zm0 0V9.857h3.429v3.429z" clip-rule="evenodd"/></g><defs><clipPath id="a"><path fill="#fff" d="M0 0h24v24H0z"/></clipPath></defs></svg>
